X:1
T:Believe and Thou Shalt Be Saved
T:Believe and Thou Shalt Be Saved
T:S. L. Howard
T:Adalyn Evilsizer, 1899
T:Public Domain Courtesy of the Cyber Hymnal™
T:Public Domain Courtesy of the Cyber Hymnal™
C:S. L. Howard
Z:Public Domain
Z:Courtesy of the Cyber Hymnal™
%%score ( 1 2 ) ( 3 4 )
L:1/8
Q:1/4=100
M:4/4
K:G
V:1 treble 
V:2 treble 
V:3 bass 
V:4 bass 
V:1
 D>D | [DG]2 [DG]>[DA] [GB]2 G>[GB] | [FA]4 G2 [DG]>[DA] | [GB]2 [GB]>[Gc] [Gd]2 [Ac]>[GB] | %4
w: 1.~There’s a|mes- sage of hope to the|dy- ing, O be-|lieve on the Lord and be|
w: 2.~Turn a-|way from your sin, and re-|pent- ing, O be-|lieve on the Lord and be|
w: 3.~While the|voice of your con- science is|plead- ing, O be-|lieve on the Lord and be|
w: 4.~Sin- ner,|why do you lin- ger, de-|bat- ing? O be-|lieve on the Lord and be|
 [FA]6 D>D | [DG]2 [DG]>[DA] [GB]2 G>[GB] | [FA]4 G2 [GB]>[Gc] | [Gd]2 [Gd]>[Gc] [GB]2 [FA]>[FA] | %8
w: saved; Life is|short, and the mo- ments are|fly- ing, O be-|lieve on the Lord and be|
w: saved; Come to|Christ while the heart is re-|lent- ing, O be-|lieve on the Lord and be|
w: saved; While the|Sav- ior is now in- ter-|ced- ing, O be-|lieve on the Lord and be|
w: saved; Gra- cious|par- don for you is a-|wait- ing, O be-|lieve on the Lord and be|
 G6 ||"^Refrain" [GB]>[Ac] | [Bd]6 [Bd]>[Ac] | [GB]6 [GB]>[GB] | [FA]2 [FA]>[FA] [Fd]2 [G^c]>[Gc] | %13
w: saved.|||||
w: saved.|O be-|lieve and be|saved, O be-|lieve on the Lord and be|
w: saved.|||||
w: saved.|||||
 !fermata!d6 !fermata![GB]>[Ac] | [Bd]6 [Bd]>[Ac] | [GB]6 [GB]>[Gc] | %16
w: |||
w: saved; Christ re-|ceives all who|come, O be-|
w: |||
w: |||
 [Gd]2 [Gd]>[Gc] [GB]2 [FA]>[FA] | !fermata!G6 !fermata!D2 |] %18
w: ||
w: lieve Him, and thou shalt be|saved. *|
w: ||
w: ||
V:2
 D>D | x6 G3/2 x/ | x4 G2 x2 | x8 | x6 D>D | x6 G3/2 x/ | x4 G2 x2 | x8 | G6 || x2 | x8 | x8 | x8 | %13
 (F2 G>G A2) x2 | x8 | x8 | x8 | G2 E>E x4 |] %18
V:3
 [G,B,]>[G,B,] | [G,B,]2 [G,B,]>[G,C] [G,D]2 [G,B,]>[G,D] | [D,C]4 [G,B,]2 [G,B,]>[G,C] | %3
w: ~ ~|~ ~ ~ ~ ~ ~|~ ~ ~ ~|
 [G,D]2 G,>[G,A,] [G,B,]2 [F,D]>[G,D] | [D,D]6 [G,B,]>[G,B,] | %5
w: ~ ~ ~ ~ ~ ~|~ ~ ~|
 [G,B,]2 [G,B,]>[G,C] [G,D]2 [G,B,]>[G,D] | [D,C]4 [G,B,]2 G,>[G,A,] | %7
w: ~ ~ ~ ~ ~ ~|~ ~ ~ ~|
 [G,B,]2 [G,B,]>[C,E] [D,D]2 [D,C]>[D,C] | [G,B,]6 || z2 | z2 [G,D]>[G,D] [G,D]2 z2 | %11
w: ~ ~ ~ ~ ~ ~|~||O be- lieve|
 z2 [G,D]>[G,D] [G,D]2 [G,D]>[G,D] | [A,D]2 [A,D]>[A,D] A,2 [A,,A,]>[A,,A,] | %13
w: and be saved ~ ~|~ ~ ~ ~ ~ ~|
 [D,A,]2 [D,B,]>[D,B,] !fermata![D,C]2 z2 | z2 [G,D]>[G,D] [G,D]2 z2 | %15
w: ~ and be saved,|Christ re- ceives|
 z2 [G,D]>[G,D] [G,D]2 G,>[G,A,] | [G,B,]2 [G,B,]>[C,E] [D,D]2 [D,C]>[D,C] | %17
w: all who come, ~ ~|~ ~ ~ ~ ~ ~|
 !fermata!B,2 C>C !fermata!B,2 x2 |] %18
w: ~ O be- lieve|
V:4
 x2 | x8 | x8 | x2 G,3/2 x9/2 | x8 | x8 | x6 G,3/2 x/ | x8 | x6 || x2 | x8 | x8 | x4 A,2 x2 | x8 | %14
 x8 | x6 G,3/2 x/ | x8 | G,6 x2 |] %18

